Simply-Green-Circles/scalable/actions/document-open-recent.svg

<svg xmlns="http://www.w3.org/2000/svg" width="24" height="24" viewBox="0 0 6.35 6.35"><path fill="#2ca02c" d="M3.17.06a3.11 3.11 0 0 0-3.1 3.11 3.11 3.11 0 0 0 3.1 3.12A3.11 3.11 0 0 0 6.3 3.17 3.11 3.11 0 0 0 3.17.06zm0 .46A2.68 2.68 0 0 1 5.84 3.2a2.68 2.68 0 0 1-2.67 2.68A2.68 2.68 0 0 1 .49 3.2 2.68 2.68 0 0 1 3.17.52zM4.52 1.7a.22.22 0 0 0-.03 0 .22.22 0 0 0-.11.08L3.2 2.95l-.73-.73a.22.22 0 1 0-.3.3l.88.89a.22.22 0 0 0 .3 0l1.33-1.33a.22.22 0 0 0-.17-.38z"/></svg>

<?xml version="1.0" encoding="UTF-8" standalone="no"?>
<svg
   xmlns:dc="http://purl.org/dc/elements/1.1/"
   xmlns:cc="http://creativecommons.org/ns#"
   xmlns:rdf="http://www.w3.org/1999/02/22-rdf-syntax-ns#"
   xmlns:svg="http://www.w3.org/2000/svg"
   xmlns="http://www.w3.org/2000/svg"
   xmlns:sodipodi="http://sodipodi.sourceforge.net/DTD/sodipodi-0.dtd"
   xmlns:inkscape="http://www.inkscape.org/namespaces/inkscape"
   width="24"
   height="24"
   viewBox="0 0 6.35 6.35"
   version="1.1"
   id="svg4"
   sodipodi:docname="document-open-recent.svg"
   inkscape:version="0.92.4 (5da689c313, 2019-01-14)">
  <metadata
     id="metadata10">
    <rdf:RDF>
      <cc:Work
         rdf:about="">
        <dc:format>image/svg+xml</dc:format>
        <dc:type
           rdf:resource="http://purl.org/dc/dcmitype/StillImage" />
        <dc:title></dc:title>
      </cc:Work>
    </rdf:RDF>
  </metadata>
  <defs
     id="defs8" />
  <sodipodi:namedview
     pagecolor="#ffffff"
     bordercolor="#666666"
     borderopacity="1"
     objecttolerance="10"
     gridtolerance="10"
     guidetolerance="10"
     inkscape:pageopacity="0"
     inkscape:pageshadow="2"
     inkscape:window-width="1078"
     inkscape:window-height="480"
     id="namedview6"
     showgrid="false"
     inkscape:zoom="9.8333333"
     inkscape:cx="-0.81355932"
     inkscape:cy="12"
     inkscape:window-x="0"
     inkscape:window-y="28"
     inkscape:window-maximized="0"
     inkscape:current-layer="svg4" />
  <path
     d="M 3.17,0.06 A 3.11,3.11 0 0 0 0.07,3.17 3.11,3.11 0 0 0 3.17,6.29 3.11,3.11 0 0 0 6.3,3.17 3.11,3.11 0 0 0 3.17,0.06 Z m 0,0.46 A 2.68,2.68 0 0 1 5.84,3.2 2.68,2.68 0 0 1 3.17,5.88 2.68,2.68 0 0 1 0.49,3.2 2.68,2.68 0 0 1 3.17,0.52 Z M 4.52,1.7 A 0.22,0.22 0 0 0 4.49,1.7 0.22,0.22 0 0 0 4.38,1.78 L 3.2,2.95 2.47,2.22 a 0.22,0.22 0 1 0 -0.3,0.3 l 0.88,0.89 a 0.22,0.22 0 0 0 0.3,0 L 4.68,2.08 A 0.22,0.22 0 0 0 4.51,1.7 Z"
     id="path2"
     inkscape:connector-curvature="0"
     style="fill:#2ca02c" />
</svg>
